X: 2
T: The Girl I Left Behind Me
R: polka
M: 2/4
L: 1/8
K: Gmaj
gf| e2dc B2A2|B2G2 E2D2|G2G2 GABc|d4 B2gf|
e2dc B2A2|B2G2 E2G2|FGA2 D2EF|G4 G2:|
|dc|B2 Bcd2ef |g2dcBAG2|Bc d2e2f2|g4 f2gf|
e2dc B2A2|B2G2 E2G2|FGA2 D2EF|G4 G2 :|


Tune 5418	Setting 24490

